; HEADER_BLOCK_START
; generated by OrcaSlicer 2.3.1-alpha on 2025-11-19 at 10:42:01
; total layer number: 4
; filament_density: 1.25
; filament_diameter: 1.75
; max_z_height: 0.80
; HEADER_BLOCK_END

; THUMBNAIL_BLOCK_START

;
; THUMBNAIL_BLOCK_END

; external perimeters extrusion width = 0.42mm
; perimeters extrusion width = 0.45mm
; infill extrusion width = 0.45mm
; solid infill extrusion width = 0.42mm
; top infill extrusion width = 0.42mm
; first layer extrusion width = 0.50mm

; EXECUTABLE_BLOCK_START
EXCLUDE_OBJECT_DEFINE NAME=Cube_id_0_copy_0 CENTER=35.8197,29.275 POLYGON=[[18.3197,11.775],[53.3197,11.775],[53.3197,46.775],[18.3197,46.775],[18.3197,11.775]]
M106 S0
M106 P2 S0
;TYPE:Custom
;;===== date: 20240520 =====================
;printer_model:Elegoo Centauri Carbon
;initial_filament:PLA
;curr_bed_type:Textured PEI Plate
;Target chamber temp for print is 0

M400 ; wait for buffer to clear
M8213
M400
M220 S100 ;Set the feed speed to 100%
M221 S100 ;Set the flow rate to 100%

M104 S140
M140 S60

G90
G28 ;home
M729 ;Clean Nozzle



;enable_pressure_advance:false
;This value is called if pressure advance is enabled

M204 S5000 ;Call exterior wall print acceleration


M190 S60
M109 S210
M83
G92 E0 ;Reset Extruder

SET_PRINT_STATS_INFO TOTAL_LAYER=4
;LAYER_COUNT:4
;LAYER:0
G90
G21
M83 ; use relative distances for extrusion
; filament start gcode
M106 P3 S200


M106 P2 S0
;LAYER_CHANGE
;Z:0.2
;HEIGHT:0.2
;BEFORE_LAYER_CHANGE
;0.2
G92 E0
;
;
;
;
;
;
G1 E-.8 F1800
;LAYER:1
SET_PRINT_STATS_INFO CURRENT_LAYER=1

;_SET_FAN_SPEED_CHANGING_LAYER
SET_VELOCITY_LIMIT ACCEL=500
EXCLUDE_OBJECT_START NAME=Cube_id_0_copy_0
G1 X52.056 Y45.511 F30000
G1 Z.6
G1 Z.2
G1 E.8 F1800
;TYPE:Inner wall
;WIDTH:0.5
G1 F3000
G1 X19.584 Y45.511 E1.18476
G1 X19.584 Y13.039 E1.18476
G1 X52.056 Y13.039 E1.18476
G1 X52.056 Y45.471 E1.1833
G1 X52.513 Y45.968 F30000
G1 F3000
G1 X19.127 Y45.968 E1.21812
G1 X19.127 Y12.582 E1.21812
G1 X52.513 Y12.582 E1.21812
G1 X52.513 Y45.928 E1.21666
G1 X52.97 Y46.425 F30000
;TYPE:Outer wall
G1 F3000
G1 X18.67 Y46.425 E1.25147
G1 X18.67 Y12.125 E1.25147
G1 X52.97 Y12.125 E1.25147
G1 X52.97 Y46.385 E1.25001
G1 E-.728 F1800
;WIPE_START
G1 F30000
G1 X51.77 Y46.386 E-.072
;WIPE_END
G1 X51.783 Y38.754 Z.6
G1 X51.827 Y14.194 Z.6
G1 Z.2
G1 E.8 F1800
;TYPE:Bottom surface
;WIDTH:0.500901
G1 F6300
G1 X51.107 Y13.473 E.03724
G1 X50.459 Y13.473 E.02368
G1 X51.621 Y14.636 E.06009
G1 X51.621 Y15.283 E.02368
G1 X49.811 Y13.473 E.09357
G1 X49.164 Y13.473 E.02368
G1 X51.621 Y15.931 E.12706
G1 X51.621 Y16.579 E.02368
G1 X48.516 Y13.473 E.16054
G1 X47.868 Y13.473 E.02368
G1 X51.621 Y17.226 E.19403
G1 X51.621 Y17.874 E.02368
G1 X47.221 Y13.473 E.22752
G1 X46.573 Y13.473 E.02368
G1 X51.621 Y18.522 E.261
G1 X51.621 Y19.169 E.02368
G1 X45.925 Y13.473 E.29449
G1 X45.278 Y13.473 E.02368
G1 X51.621 Y19.817 E.32797
G1 X51.621 Y20.465 E.02368
G1 X44.63 Y13.473 E.36146
G1 X43.982 Y13.473 E.02368
G1 X51.621 Y21.112 E.39494
G1 X51.621 Y21.76 E.02368
G1 X43.335 Y13.473 E.42843
G1 X42.687 Y13.473 E.02368
G1 X51.621 Y22.408 E.46192
G1 X51.621 Y23.055 E.02368
G1 X42.039 Y13.473 E.4954
G1 X41.392 Y13.473 E.02368
G1 X51.621 Y23.703 E.52889
G1 X51.621 Y24.351 E.02368
G1 X40.744 Y13.473 E.56237
G1 X40.096 Y13.473 E.02368
G1 X51.621 Y24.999 E.59586
G1 X51.621 Y25.646 E.02368
G1 X39.448 Y13.473 E.62934
G1 X38.801 Y13.473 E.02368
G1 X51.621 Y26.294 E.66283
G1 X51.621 Y26.942 E.02368
G1 X38.153 Y13.473 E.69632
G1 X37.505 Y13.473 E.02368
G1 X51.621 Y27.589 E.7298
G1 X51.621 Y28.237 E.02368
G1 X36.858 Y13.473 E.76329
G1 X36.21 Y13.473 E.02368
G1 X51.621 Y28.885 E.79677
G1 X51.621 Y29.532 E.02368
G1 X35.562 Y13.473 E.83026
G1 X34.915 Y13.473 E.02368
G1 X51.621 Y30.18 E.86374
G1 X51.621 Y30.828 E.02368
G1 X34.267 Y13.473 E.89723
G1 X33.619 Y13.473 E.02368
G1 X51.621 Y31.475 E.93072
G1 X51.621 Y32.123 E.02368
G1 X32.972 Y13.473 E.9642
G1 X32.324 Y13.473 E.02368
G1 X51.621 Y32.771 E.99769
G1 X51.621 Y33.418 E.02368
G1 X31.676 Y13.473 E1.03117
G1 X31.029 Y13.473 E.02368
G1 X51.621 Y34.066 E1.06466
G1 X51.621 Y34.714 E.02368
G1 X30.381 Y13.473 E1.09815
G1 X29.733 Y13.473 E.02368
G1 X51.621 Y35.361 E1.13163
G1 X51.621 Y36.009 E.02368
G1 X29.086 Y13.473 E1.16512
G1 X28.438 Y13.473 E.02368
G1 X51.621 Y36.657 E1.1986
G1 X51.621 Y37.304 E.02368
G1 X27.79 Y13.473 E1.23209
G1 X27.143 Y13.473 E.02368
G1 X51.621 Y37.952 E1.26557
G1 X51.621 Y38.6 E.02368
G1 X26.495 Y13.473 E1.29906
G1 X25.847 Y13.473 E.02368
G1 X51.621 Y39.248 E1.33255
G1 X51.621 Y39.895 E.02368
G1 X25.199 Y13.473 E1.36603
G1 X24.552 Y13.473 E.02368
G1 X51.621 Y40.543 E1.39952
G1 X51.621 Y41.191 E.02368
G1 X23.904 Y13.473 E1.433
G1 X23.256 Y13.473 E.02368
G1 X51.621 Y41.838 E1.46649
G1 X51.621 Y42.486 E.02368
G1 X22.609 Y13.473 E1.49997
G1 X21.961 Y13.473 E.02368
G1 X51.621 Y43.134 E1.53346
G1 X51.621 Y43.781 E.02368
G1 X21.313 Y13.473 E1.56695
G1 X20.666 Y13.473 E.02368
G1 X51.621 Y44.429 E1.60043
G1 X51.621 Y45.077 E.02368
G1 X20.018 Y13.473 E1.63391
G1 X20.018 Y14.121 E.02368
G1 X50.974 Y45.077 E1.60042
G1 X50.326 Y45.077 E.02368
G1 X20.018 Y14.769 E1.56694
G1 X20.018 Y15.417 E.02368
G1 X49.678 Y45.077 E1.53345
G1 X49.031 Y45.077 E.02368
G1 X20.018 Y16.064 E1.49997
G1 X20.018 Y16.712 E.02368
G1 X48.383 Y45.077 E1.46648
G1 X47.735 Y45.077 E.02368
G1 X20.018 Y17.36 E1.433
G1 X20.018 Y18.007 E.02368
G1 X47.087 Y45.077 E1.39951
G1 X46.44 Y45.077 E.02368
G1 X20.018 Y18.655 E1.36602
G1 X20.018 Y19.303 E.02368
G1 X45.792 Y45.077 E1.33254
G1 X45.144 Y45.077 E.02368
G1 X20.018 Y19.95 E1.29905
G1 X20.018 Y20.598 E.02368
G1 X44.497 Y45.077 E1.26557
G1 X43.849 Y45.077 E.02368
G1 X20.018 Y21.246 E1.23208
G1 X20.018 Y21.893 E.02368
G1 X43.201 Y45.077 E1.1986
G1 X42.554 Y45.077 E.02368
G1 X20.018 Y22.541 E1.16511
G1 X20.018 Y23.189 E.02368
G1 X41.906 Y45.077 E1.13162
G1 X41.258 Y45.077 E.02368
G1 X20.018 Y23.836 E1.09814
G1 X20.018 Y24.484 E.02368
G1 X40.611 Y45.077 E1.06465
G1 X39.963 Y45.077 E.02368
G1 X20.018 Y25.132 E1.03117
G1 X20.018 Y25.779 E.02368
G1 X39.315 Y45.077 E.99768
G1 X38.668 Y45.077 E.02368
G1 X20.018 Y26.427 E.9642
G1 X20.018 Y27.075 E.02368
G1 X38.02 Y45.077 E.93071
G1 X37.372 Y45.077 E.02368
G1 X20.018 Y27.722 E.89722
G1 X20.018 Y28.37 E.02368
G1 X36.725 Y45.077 E.86374
G1 X36.077 Y45.077 E.02368
G1 X20.018 Y29.018 E.83025
G1 X20.018 Y29.666 E.02368
G1 X35.429 Y45.077 E.79677
G1 X34.781 Y45.077 E.02368
G1 X20.018 Y30.313 E.76328
G1 X20.018 Y30.961 E.02368
G1 X34.134 Y45.077 E.7298
G1 X33.486 Y45.077 E.02368
G1 X20.018 Y31.609 E.69631
G1 X20.018 Y32.256 E.02368
G1 X32.838 Y45.077 E.66282
G1 X32.191 Y45.077 E.02368
G1 X20.018 Y32.904 E.62934
G1 X20.018 Y33.552 E.02368
G1 X31.543 Y45.077 E.59585
G1 X30.895 Y45.077 E.02368
G1 X20.018 Y34.199 E.56237
G1 X20.018 Y34.847 E.02368
G1 X30.248 Y45.077 E.52888
G1 X29.6 Y45.077 E.02368
G1 X20.018 Y35.495 E.49539
G1 X20.018 Y36.142 E.02368
G1 X28.952 Y45.077 E.46191
G1 X28.305 Y45.077 E.02368
G1 X20.018 Y36.79 E.42842
G1 X20.018 Y37.438 E.02368
G1 X27.657 Y45.077 E.39494
G1 X27.009 Y45.077 E.02368
G1 X20.018 Y38.085 E.36145
G1 X20.018 Y38.733 E.02368
G1 X26.362 Y45.077 E.32797
G1 X25.714 Y45.077 E.02368
G1 X20.018 Y39.381 E.29448
G1 X20.018 Y40.028 E.02368
G1 X25.066 Y45.077 E.26099
G1 X24.419 Y45.077 E.02368
G1 X20.018 Y40.676 E.22751
G1 X20.018 Y41.324 E.02368
G1 X23.771 Y45.077 E.19402
G1 X23.123 Y45.077 E.02368
G1 X20.018 Y41.972 E.16054
G1 X20.018 Y42.619 E.02368
G1 X22.476 Y45.077 E.12705
G1 X21.828 Y45.077 E.02368
G1 X20.018 Y43.267 E.09357
G1 X20.018 Y43.915 E.02368
G1 X21.18 Y45.077 E.06008
G1 X20.532 Y45.077 E.02368
G1 X19.812 Y44.357 E.03723
M106 S237
;LAYER_CHANGE
;Z:0.4
;HEIGHT:0.2
;BEFORE_LAYER_CHANGE
;0.4
G92 E0
;
;
;
;
;
;
G1 E-.728 F1800
;WIPE_START
G1 F30000
G1 X20.532 Y45.077 E-.0611
G1 X20.714 Y45.077 E-.0109
;WIPE_END
EXCLUDE_OBJECT_END NAME=Cube_id_0_copy_0
;LAYER:2
SET_PRINT_STATS_INFO CURRENT_LAYER=2

;_SET_FAN_SPEED_CHANGING_LAYER
SET_VELOCITY_LIMIT ACCEL=10000
M140 S60 ; set bed temperature
EXCLUDE_OBJECT_START NAME=Cube_id_0_copy_0
G17
G3 Z.8 I-.027 J1.217 P1
G1 X52.311 Y45.766 Z.8
G1 Z.4
G1 E.8 F1800
;TYPE:Inner wall
;WIDTH:0.45
G1 F12000
G1 X19.329 Y45.766 E1.07174
G1 X19.329 Y12.784 E1.07174
G1 X52.311 Y12.784 E1.07174
G1 X52.311 Y45.726 E1.07044
G1 E-.728 F1800
;WIPE_START
G1 F30000
G1 X51.111 Y45.727 E-.072
;WIPE_END
G1 X51.111 Y46.164 Z.8
G1 X52.709 Y46.164
G1 X53.11 Y46.565
G1 Z.4
G1 E.8 F1800
SET_VELOCITY_LIMIT ACCEL=5000
;TYPE:Outer wall
;WIDTH:0.42
G1 F7200
G1 X18.53 Y46.565 E1.04086
G1 X18.53 Y11.985 E1.04086
G1 X53.11 Y11.985 E1.04086
G1 X53.11 Y46.525 E1.03966
G1 X52.709 Y46.164 F30000
G1 X52.718 Y46.173
SET_VELOCITY_LIMIT ACCEL=10000
;TYPE:Inner wall
;WIDTH:0.45
G1 F12000
G1 X18.922 Y46.173 E1.09819
G1 X18.922 Y12.377 E1.09819
G1 X52.718 Y12.377 E1.09819
G1 X52.718 Y46.133 E1.09689
G1 X50.488 Y45.374 F30000
;TYPE:Internal solid infill
;WIDTH:0.419999
G1 F15000
G1 X51.918 Y45.374 E.04306
G1 X51.918 Y43.943 E.04306
G1 X50.516 Y45.345 E.05969
G1 X51.528 Y44.905 F30000
;WIDTH:0.503866
G1 F14237.026
G2 X51.537 Y44.989 I-.028 J.046 E.00869
G1 X49.779 Y45.602 F30000
;WIDTH:0.420643
G1 F15000
G1 X51.977 Y43.404 E.09374
G1 X51.977 Y42.87 E.01611
G1 X49.414 Y45.433 E.10928
G1 X48.88 Y45.433 E.01611
G1 X51.977 Y42.336 E.13206
G1 X51.977 Y41.801 E.01611
G1 X48.346 Y45.433 E.15484
G1 X47.812 Y45.433 E.01611
G1 X51.977 Y41.267 E.17762
G1 X51.977 Y40.733 E.01611
G1 X47.278 Y45.433 E.20039
G1 X46.743 Y45.433 E.01611
G1 X51.977 Y40.199 E.22317
G1 X51.977 Y39.665 E.01611
G1 X46.209 Y45.433 E.24595
G1 X45.675 Y45.433 E.01611
G1 X51.977 Y39.13 E.26873
G1 X51.977 Y38.596 E.01611
G1 X45.141 Y45.433 E.2915
G1 X44.607 Y45.433 E.01611
G1 X51.977 Y38.062 E.31428
G1 X51.977 Y37.528 E.01611
G1 X44.073 Y45.433 E.33706
G1 X43.538 Y45.433 E.01611
G1 X51.977 Y36.994 E.35984
G1 X51.977 Y36.46 E.01611
G1 X43.004 Y45.433 E.38262
G1 X42.47 Y45.433 E.01611
G1 X51.977 Y35.925 E.40539
G1 X51.977 Y35.391 E.01611
G1 X41.936 Y45.433 E.42817
G1 X41.402 Y45.433 E.01611
G1 X51.977 Y34.857 E.45095
G1 X51.977 Y34.323 E.01611
G1 X40.868 Y45.433 E.47373
G1 X40.333 Y45.433 E.01611
G1 X51.977 Y33.789 E.4965
G1 X51.977 Y33.254 E.01611
G1 X39.799 Y45.433 E.51928
G1 X39.265 Y45.433 E.01611
G1 X51.977 Y32.72 E.54206
G1 X51.977 Y32.186 E.01611
G1 X38.731 Y45.433 E.56484
G1 X38.197 Y45.433 E.01611
G1 X51.977 Y31.652 E.58762
G1 X51.977 Y31.118 E.01611
G1 X37.662 Y45.433 E.61039
G1 X37.128 Y45.433 E.01611
G1 X51.977 Y30.584 E.63317
G1 X51.977 Y30.049 E.01611
G1 X36.594 Y45.433 E.65595
G1 X36.06 Y45.433 E.01611
G1 X51.977 Y29.515 E.67873
G1 X51.977 Y28.981 E.01611
G1 X35.526 Y45.433 E.70151
G1 X34.992 Y45.433 E.01611
G1 X51.977 Y28.447 E.72428
G1 X51.977 Y27.913 E.01611
G1 X34.457 Y45.433 E.74706
G1 X33.923 Y45.433 E.01611
G1 X51.977 Y27.378 E.76984
G1 X51.977 Y26.844 E.01611
G1 X33.389 Y45.433 E.79262
G1 X32.855 Y45.433 E.01611
G1 X51.977 Y26.31 E.81539
G1 X51.977 Y25.776 E.01611
G1 X32.321 Y45.433 E.83817
G1 X31.786 Y45.433 E.01611
G1 X51.977 Y25.242 E.86095
G1 X51.977 Y24.708 E.01611
G1 X31.252 Y45.433 E.88373
G1 X30.718 Y45.433 E.01611
G1 X51.977 Y24.173 E.90651
G1 X51.977 Y23.639 E.01611
G1 X30.184 Y45.433 E.92928
G1 X29.65 Y45.433 E.01611
G1 X51.977 Y23.105 E.95206
G1 X51.977 Y22.571 E.01611
G1 X29.116 Y45.433 E.97484
G1 X28.581 Y45.433 E.01611
G1 X51.977 Y22.037 E.99762
G1 X51.977 Y21.502 E.01611
G1 X28.047 Y45.433 E1.02039
G1 X27.513 Y45.433 E.01611
G1 X51.977 Y20.968 E1.04317
G1 X51.977 Y20.434 E.01611
G1 X26.979 Y45.433 E1.06595
G1 X26.445 Y45.433 E.01611
G1 X51.977 Y19.9 E1.08873
G1 X51.977 Y19.366 E.01611
G1 X25.91 Y45.433 E1.11151
G1 X25.376 Y45.433 E.01611
G1 X51.977 Y18.832 E1.13428
G1 X51.977 Y18.297 E.01611
G1 X24.842 Y45.433 E1.15706
G1 X24.308 Y45.433 E.01611
G1 X51.977 Y17.763 E1.17984
G1 X51.977 Y17.229 E.01611
G1 X23.774 Y45.433 E1.20262
G1 X23.24 Y45.433 E.01611
G1 X51.977 Y16.695 E1.2254
G1 X51.977 Y16.161 E.01611
G1 X22.705 Y45.433 E1.24817
G1 X22.171 Y45.433 E.01611
G1 X51.977 Y15.626 E1.27095
G1 X51.977 Y15.092 E.01611
G1 X21.637 Y45.433 E1.29373
G1 X21.103 Y45.433 E.01611
G1 X51.977 Y14.558 E1.31651
G1 X51.977 Y14.024 E.01611
G1 X20.569 Y45.433 E1.33928
G1 X20.034 Y45.433 E.01611
G1 X51.977 Y13.49 E1.36206
G1 X51.977 Y13.117 E.01123
G1 X51.815 Y13.117 E.00488
G1 X19.662 Y45.271 E1.37104
G1 X19.662 Y44.737 E.01611
G1 X51.281 Y13.117 E1.34826
G1 X50.747 Y13.117 E.01611
G1 X19.662 Y44.202 E1.32548
G1 X19.662 Y43.668 E.01611
G1 X50.213 Y13.117 E1.3027
G1 X49.679 Y13.117 E.01611
G1 X19.662 Y43.134 E1.27993
G1 X19.662 Y42.6 E.01611
G1 X49.145 Y13.117 E1.25715
G1 X48.61 Y13.117 E.01611
G1 X19.662 Y42.066 E1.23437
G1 X19.662 Y41.531 E.01611
G1 X48.076 Y13.117 E1.21159
G1 X47.542 Y13.117 E.01611
G1 X19.662 Y40.997 E1.18882
G1 X19.662 Y40.463 E.01611
G1 X47.008 Y13.117 E1.16604
G1 X46.474 Y13.117 E.01611
G1 X19.662 Y39.929 E1.14326
G1 X19.662 Y39.395 E.01611
G1 X45.939 Y13.117 E1.12048
G1 X45.405 Y13.117 E.01611
G1 X19.662 Y38.861 E1.0977
G1 X19.662 Y38.326 E.01611
G1 X44.871 Y13.117 E1.07493
G1 X44.337 Y13.117 E.01611
G1 X19.662 Y37.792 E1.05215
G1 X19.662 Y37.258 E.01611
G1 X43.803 Y13.117 E1.02937
G1 X43.269 Y13.117 E.01611
G1 X19.662 Y36.724 E1.00659
G1 X19.662 Y36.19 E.01611
G1 X42.734 Y13.117 E.98381
G1 X42.2 Y13.117 E.01611
G1 X19.662 Y35.655 E.96104
G1 X19.662 Y35.121 E.01611
G1 X41.666 Y13.117 E.93826
G1 X41.132 Y13.117 E.01611
G1 X19.662 Y34.587 E.91548
G1 X19.662 Y34.053 E.01611
G1 X40.598 Y13.117 E.8927
G1 X40.063 Y13.117 E.01611
G1 X19.662 Y33.519 E.86993
G1 X19.662 Y32.985 E.01611
G1 X39.529 Y13.117 E.84715
G1 X38.995 Y13.117 E.01611
G1 X19.662 Y32.45 E.82437
G1 X19.662 Y31.916 E.01611
G1 X38.461 Y13.117 E.80159
G1 X37.927 Y13.117 E.01611
G1 X19.662 Y31.382 E.77881
G1 X19.662 Y30.848 E.01611
G1 X37.393 Y13.117 E.75604
G1 X36.858 Y13.117 E.01611
G1 X19.662 Y30.314 E.73326
G1 X19.662 Y29.779 E.01611
G1 X36.324 Y13.117 E.71048
G1 X35.79 Y13.117 E.01611
G1 X19.662 Y29.245 E.6877
G1 X19.662 Y28.711 E.01611
G1 X35.256 Y13.117 E.66493
G1 X34.722 Y13.117 E.01611
G1 X19.662 Y28.177 E.64215
G1 X19.662 Y27.643 E.01611
G1 X34.187 Y13.117 E.61937
G1 X33.653 Y13.117 E.01611
G1 X19.662 Y27.109 E.59659
G1 X19.662 Y26.574 E.01611
G1 X33.119 Y13.117 E.57381
G1 X32.585 Y13.117 E.01611
G1 X19.662 Y26.04 E.55104
G1 X19.662 Y25.506 E.01611
G1 X32.051 Y13.117 E.52826
G1 X31.517 Y13.117 E.01611
G1 X19.662 Y24.972 E.50548
G1 X19.662 Y24.438 E.01611
G1 X30.982 Y13.117 E.4827
G1 X30.448 Y13.117 E.01611
G1 X19.662 Y23.903 E.45992
G1 X19.662 Y23.369 E.01611
G1 X29.914 Y13.117 E.43715
G1 X29.38 Y13.117 E.01611
G1 X19.662 Y22.835 E.41437
G1 X19.662 Y22.301 E.01611
G1 X28.846 Y13.117 E.39159
G1 X28.311 Y13.117 E.01611
G1 X19.662 Y21.767 E.36881
G1 X19.662 Y21.233 E.01611
G1 X27.777 Y13.117 E.34604
G1 X27.243 Y13.117 E.01611
G1 X19.662 Y20.698 E.32326
G1 X19.662 Y20.164 E.01611
G1 X26.709 Y13.117 E.30048
G1 X26.175 Y13.117 E.01611
G1 X19.662 Y19.63 E.2777
G1 X19.662 Y19.096 E.01611
G1 X25.641 Y13.117 E.25492
G1 X25.106 Y13.117 E.01611
G1 X19.662 Y18.562 E.23215
G1 X19.662 Y18.028 E.01611
G1 X24.572 Y13.117 E.20937
G1 X24.038 Y13.117 E.01611
G1 X19.662 Y17.493 E.18659
G1 X19.662 Y16.959 E.01611
G1 X23.504 Y13.117 E.16381
G1 X22.97 Y13.117 E.01611
G1 X19.662 Y16.425 E.14104
G1 X19.662 Y15.891 E.01611
G1 X22.435 Y13.117 E.11826
G1 X21.901 Y13.117 E.01611
G1 X19.662 Y15.357 E.09548
G1 X19.662 Y14.822 E.01611
G1 X21.367 Y13.117 E.0727
G1 X20.833 Y13.117 E.01611
G1 X19.662 Y14.288 E.04992
G1 X19.662 Y13.754 E.01611
G1 X20.468 Y12.948 E.03438
G1 X19.757 Y13.144 F30000
;WIDTH:0.442592
G1 F15000
G1 X19.682 Y13.188 E.00276
G1 X19.762 Y13.222 E.00278
;LAYER_CHANGE
;Z:0.6
;HEIGHT:0.2
;BEFORE_LAYER_CHANGE
;0.6
G92 E0
;
;
;
;
;
;
G1 E-.78958 F1800
;WIPE_START
G1 F30000
G1 X19.682 Y13.188 E-.00523
G1 X19.757 Y13.144 E-.00519
;WIPE_END
EXCLUDE_OBJECT_END NAME=Cube_id_0_copy_0
;LAYER:3
SET_PRINT_STATS_INFO CURRENT_LAYER=3

;_SET_FAN_SPEED_CHANGING_LAYER
EXCLUDE_OBJECT_START NAME=Cube_id_0_copy_0
G17
G3 Z1 I-.861 J.86 P1
G1 X52.311 Y45.766 Z1
G1 Z.6
G1 E.8 F1800
;TYPE:Inner wall
;WIDTH:0.45
G1 F12000
G1 X19.329 Y45.766 E1.07174
G1 X19.329 Y12.784 E1.07174
